packages/icons/svg/Outline/radio.svg

<svg width="24" height="24" viewBox="0 0 24 24" fill="none" xmlns="http://www.w3.org/2000/svg">
<g id="Icon/Outline/radio">
<path id="Mask" fill-rule="evenodd" clip-rule="evenodd" d="M3.5 11C3.5 9.05899 4.438 7.19999 6.144 5.76599C6.566 5.40899 6.621 4.77799 6.266 4.35599C5.909 3.93399 5.279 3.87899 4.856 4.23399C2.692 6.05599 1.5 8.45899 1.5 11C1.5 13.541 2.692 15.944 4.856 17.766C5.044 17.923 5.272 18 5.499 18C5.784 18 6.067 17.879 6.266 17.644C6.621 17.222 6.566 16.591 6.144 16.234C4.438 14.8 3.5 12.941 3.5 11ZM12 12C11.448 12 11 11.552 11 11C11 10.448 11.448 9.99999 12 9.99999C12.552 9.99999 13 10.448 13 11C13 11.552 12.552 12 12 12ZM12 7.99999C10.346 7.99999 9 9.34599 9 11C9 12.314 9.855 13.422 11.035 13.826C11.0311 13.847 11.0255 13.8672 11.02 13.8874L11.02 13.8874L11.02 13.8874L11.02 13.8874C11.0099 13.9239 11 13.9601 11 14V20C11 20.553 11.447 21 12 21C12.553 21 13 20.553 13 20V14C13 13.9601 12.9901 13.9239 12.98 13.8874L12.98 13.8874L12.98 13.8874L12.98 13.8874C12.9745 13.8672 12.9689 13.847 12.965 13.826C14.145 13.422 15 12.314 15 11C15 9.34599 13.654 7.99999 12 7.99999ZM15.2356 6.35639C15.5896 5.93439 16.2206 5.87839 16.6436 6.23539C18.1636 7.51339 18.9996 9.20639 18.9996 11.0004C18.9996 12.7944 18.1636 14.4864 16.6436 15.7644C16.4566 15.9234 16.2276 16.0004 16.0006 16.0004C15.7156 16.0004 15.4326 15.8794 15.2356 15.6434C14.8786 15.2214 14.9336 14.5904 15.3566 14.2354C16.4156 13.3424 16.9996 12.1934 16.9996 11.0004C16.9996 9.80639 16.4156 8.65739 15.3566 7.76439C14.9336 7.40939 14.8786 6.77839 15.2356 6.35639ZM8.7646 6.35639C8.4106 5.93339 7.7806 5.87739 7.3566 6.23539C5.8366 7.51339 4.9996 9.20639 4.9996 11.0004C4.9996 12.7934 5.8366 14.4864 7.3566 15.7644C7.5436 15.9224 7.7726 16.0004 7.9986 16.0004C8.2846 16.0004 8.5676 15.8784 8.7646 15.6434C9.1206 15.2214 9.0666 14.5904 8.6436 14.2354C7.5836 13.3424 6.9996 12.1934 6.9996 11.0004C6.9996 9.80639 7.5836 8.65739 8.6436 7.76439C9.0666 7.40939 9.1206 6.77839 8.7646 6.35639ZM17.7346 4.35639C18.0906 3.93439 18.7196 3.88039 19.1436 4.23439C21.3076 6.05539 22.4996 8.45939 22.4996 11.0004C22.4996 13.5414 21.3076 15.9444 19.1436 17.7654C18.9566 17.9224 18.7276 18.0004 18.5006 18.0004C18.2156 18.0004 17.9326 17.8794 17.7346 17.6434C17.3786 17.2214 17.4336 16.5904 17.8566 16.2344C19.5616 14.7994 20.4996 12.9414 20.4996 11.0004C20.4996 9.05839 19.5616 7.20039 17.8566 5.76539C17.4336 5.40939 17.3786 4.77839 17.7346 4.35639Z" fill="#000000"/>
</g>
</svg>

<svg fill="none" height="24" viewBox="0 0 24 24" width="24" xmlns="http://www.w3.org/2000/svg"><path clip-rule="evenodd" d="m3.5 10.9999c0-1.941.938-3.8 2.644-5.234.422-.357.477-.988.122-1.41-.357-.422-.987-.477-1.41-.122-2.164 1.822-3.356 4.225-3.356 6.766s1.192 4.944 3.356 6.766c.188.157.416.234.643.234.285 0 .568-.121.767-.356.355-.422.3-1.053-.122-1.41-1.706-1.434-2.644-3.293-2.644-5.234zm8.5 1c-.552 0-1-.448-1-1s.448-1 1-1 1 .448 1 1-.448 1-1 1zm0-4.00006c-1.654 0-3 1.346-3 2.99996 0 1.314.855 2.422 2.035 2.826-.0039.021-.0095.0413-.015.0614v.0001c-.0101.0364-.02.0726-.02.1125v6c0 .553.447 1 1 1s1-.447 1-1v-6c0-.0399-.0099-.0761-.02-.1125v-.0001c-.0055-.0201-.0111-.0404-.015-.0614 1.18-.404 2.035-1.512 2.035-2.826 0-1.65396-1.346-2.99996-3-2.99996zm3.2356-1.64347c.354-.422.985-.478 1.408-.121 1.52 1.278 2.356 2.971 2.356 4.76503 0 1.794-.836 3.486-2.356 4.764-.187.159-.416.236-.643.236-.285 0-.568-.121-.765-.357-.357-.422-.302-1.053.121-1.408 1.059-.893 1.643-2.042 1.643-3.235 0-1.19403-.584-2.34303-1.643-3.23603-.423-.355-.478-.986-.121-1.408zm-6.471-.00003c-.354-.423-.984-.479-1.408-.121-1.52 1.27799-2.357 2.971-2.357 4.76496 0 1.793.837 3.486 2.357 4.764.187.158.416.236.642.236.286 0 .569-.122.766-.357.356-.422.302-1.053-.121-1.408-1.06-.893-1.644-2.042-1.644-3.235 0-1.19397.584-2.34297 1.644-3.23597.423-.35499.477-.98599.121-1.40799zm8.97-2.00004c.356-.422.985-.476 1.409-.122 2.164 1.821 3.356 4.225 3.356 6.766s-1.192 4.944-3.356 6.765c-.187.157-.416.235-.643.235-.285 0-.568-.121-.766-.357-.356-.422-.301-1.053.122-1.409 1.705-1.435 2.643-3.293 2.643-5.234 0-1.942-.938-3.8-2.643-5.235-.423-.356-.478-.987-.122-1.409z" fill="#6b7280" fill-rule="evenodd"/></svg>
